remix/Media/webcam-fill.svg

<svg viewBox="0 0 24 24" fill="currentColor" xmlns="http://www.w3.org/2000/svg"><path d="M11 21V19.9291C7.60771 19.4439 5 16.5265 5 13V8C5 4.13401 8.13401 1 12 1C15.866 1 19 4.13401 19 8V13C19 16.5265 16.3923 19.4439 13 19.9291V21H17V23H7V21H11ZM12 9C11.4477 9 11 8.55228 11 8C11 7.44772 11.4477 7 12 7C12.5523 7 13 7.44772 13 8C13 8.55228 12.5523 9 12 9ZM12 11C13.6569 11 15 9.65685 15 8C15 6.34315 13.6569 5 12 5C10.3431 5 9 6.34315 9 8C9 9.65685 10.3431 11 12 11Z"/></svg>

<svg viewBox="0 0 24 24" xmlns="http://www.w3.org/2000/svg"><path fill="none" d="M0 0h24v24H0Z"/><path d="M11 21v-1.07 0c-3.45-.5-6.01-3.45-6-6.93V8h0c0-3.87 3.13-7 7-7 3.86 0 7 3.13 7 7v5 0c0 3.48-2.56 6.43-6 6.93V21h4v2H7v-2h4Zm1-12v0c-.56 0-1-.45-1-1 0-.56.44-1 1-1v0c.55 0 1 .44 1 1 0 .55-.45 1-1 1Zm0 2v0c1.65 0 3-1.35 3-3 0-1.66-1.35-3-3-3v0c-1.66 0-3 1.34-3 3 0 1.65 1.34 3 3 3Z"/></svg>
